X: 222
M: 2/4
L: 1/8
K: G
|: !segno!\
ceAc | BdGB | AcDF | G2G2 :|
|:\
"4.F."gbeg | fadf | egAc | d2d2 |\
ceAc | BdGB | AB DF | G2 G2 !segno!:|

